X: 22016
T: Kitty's Rambles
R: jig
M: 6/8
K: Dmajor
B|:DDD cAA|dcd efg|afd ecA|FDF GFE|
FDD cAA|dcd efg|fed cAG|1 ABc d2 B:|2 ABc d2 A||
|:dfA dfA|dfa afd|ceA ceA|ceg gfe|
fdf gfg|afd cde|fed cAG|1 ABc d2 A:|2 ABc d2f||
|:afd dcd|fdf afd|ge=c =cB=c|~D2f gfe|
fdf gfg|afd cde|fed cAG|1 ABc d2 f:|2 ABc d3||

